svg/arrows-corners.svg

<svg xmlns="http://www.w3.org/2000/svg" viewBox="0 0 64 64" enable-background="new 0 0 64 64"><style type="text/css">.st0{fill:#333333;}</style><title>arrows-corners</title><desc>Created with Sketch.</desc><path class="st0" d="M61 40c-1.7 0-3 1.3-3 3v10.8l-47.8-47.8h10.8c1.7 0 3-1.3 3-3s-1.3-3-3-3h-18c-1.7 0-3 1.3-3 3v18c0 1.7 1.3 3 3 3s3-1.3 3-3v-10.8l47.8 47.8h-10.8c-1.7 0-3 1.3-3 3s1.3 3 3 3h18c1.7 0 3-1.3 3-3v-18c0-1.7-1.3-3-3-3z"/></svg>

<?xml version="1.0" encoding="utf-8"?>
<!-- Generator: Adobe Illustrator 21.0.0, SVG Export Plug-In . SVG Version: 6.00 Build 0)  -->
<svg version="1.1" id="Layer_1" xmlns="http://www.w3.org/2000/svg" xmlns:xlink="http://www.w3.org/1999/xlink" x="0px" y="0px"
	 viewBox="0 0 64 64" style="enable-background:new 0 0 64 64;" xml:space="preserve">
<style type="text/css">
	.st0{fill:#333333;}
</style>
<title>arrows-corners</title>
<desc>Created with Sketch.</desc>
<path class="st0" d="M61,40c-1.7,0-3,1.3-3,3v10.8L10.2,6H21c1.7,0,3-1.3,3-3s-1.3-3-3-3H3C1.3,0,0,1.3,0,3v18c0,1.7,1.3,3,3,3
	s3-1.3,3-3V10.2L53.8,58H43c-1.7,0-3,1.3-3,3s1.3,3,3,3h18c1.7,0,3-1.3,3-3V43C64,41.3,62.7,40,61,40z"/>
</svg>
